public/build/img/sistema/iconoVideo-ng.svg

<svg width="55" height="55" viewBox="0 0 55 55" fill="none" xmlns="http://www.w3.org/2000/svg">
<g clip-path="url(#clip0_825_241)">
<path d="M20.2275 15.8018C21.0332 15.3398 22.0322 15.2646 22.8271 15.8447L38.2959 25.2979C39.0586 25.7705 39.5312 26.5977 39.5312 27.5C39.5312 28.4023 39.0586 29.2295 38.2959 29.7021L22.8271 39.1553C22.0322 39.6387 21.0332 39.6602 20.2275 39.1982C19.4111 38.7471 18.9062 37.8877 18.9062 36.9531V17.9502C18.9062 17.1123 19.4111 16.2529 20.2275 15.8018ZM55 27.5C55 42.6895 42.6895 55 27.5 55C12.3105 55 0 42.6895 0 27.5C0 12.3105 12.3105 0 27.5 0C42.6895 0 55 12.3105 55 27.5ZM27.5 5.15625C15.1572 5.15625 5.15625 15.1572 5.15625 27.5C5.15625 39.8428 15.1572 49.8438 27.5 49.8438C39.8428 49.8438 49.8438 39.8428 49.8438 27.5C49.8438 15.1572 39.8428 5.15625 27.5 5.15625Z" fill="black"/>
</g>
<defs>
<clipPath id="clip0_825_241">
<rect width="55" height="55" fill="white"/>
</clipPath>
</defs>
</svg>

<svg width="55" height="55" fill="none" xmlns="http://www.w3.org/2000/svg"><g clip-path="url(#clip0_825_241)"><path d="M20.227 15.802c.806-.462 1.805-.537 2.6.043l15.469 9.453A2.592 2.592 0 0139.53 27.5a2.59 2.59 0 01-1.235 2.202l-15.469 9.453a2.56 2.56 0 01-2.6.043 2.562 2.562 0 01-1.32-2.245V17.95c0-.838.504-1.697 1.32-2.148zM55 27.5C55 42.69 42.69 55 27.5 55S0 42.69 0 27.5 12.31 0 27.5 0 55 12.31 55 27.5zM27.5 5.156C15.157 5.156 5.156 15.157 5.156 27.5c0 12.343 10.001 22.344 22.344 22.344 12.343 0 22.344-10.001 22.344-22.344 0-12.343-10.001-22.344-22.344-22.344z" fill="#000"/></g><defs><clipPath id="clip0_825_241"><path fill="#fff" d="M0 0h55v55H0z"/></clipPath></defs></svg>
